icons/op-add-widget-24.svg

<svg width="24" height="24" viewBox="0 0 24 24" fill="none" xmlns="http://www.w3.org/2000/svg">
<path fill-rule="evenodd" clip-rule="evenodd" d="M8.5 12.75C10.0188 12.75 11.25 13.9812 11.25 15.5V18.5C11.25 20.0188 10.0188 21.25 8.5 21.25H5.5C3.98122 21.25 2.75 20.0188 2.75 18.5V15.5C2.75 13.9812 3.98122 12.75 5.5 12.75H8.5ZM5.5 14.25C4.80964 14.25 4.25 14.8096 4.25 15.5V18.5C4.25 19.1904 4.80964 19.75 5.5 19.75H8.5C9.19036 19.75 9.75 19.1904 9.75 18.5V15.5C9.75 14.8096 9.19036 14.25 8.5 14.25H5.5Z" fill="#636C76"/>
<path fill-rule="evenodd" clip-rule="evenodd" d="M18.5 12.75C20.0188 12.75 21.25 13.9812 21.25 15.5V18.5C21.25 20.0188 20.0188 21.25 18.5 21.25H15.5C13.9812 21.25 12.75 20.0188 12.75 18.5V15.5C12.75 13.9812 13.9812 12.75 15.5 12.75H18.5ZM15.5 14.25C14.8096 14.25 14.25 14.8096 14.25 15.5V18.5C14.25 19.1904 14.8096 19.75 15.5 19.75H18.5C19.1904 19.75 19.75 19.1904 19.75 18.5V15.5C19.75 14.8096 19.1904 14.25 18.5 14.25H15.5Z" fill="#636C76"/>
<path fill-rule="evenodd" clip-rule="evenodd" d="M8.5 2.75C10.0188 2.75 11.25 3.98122 11.25 5.5V8.5C11.25 10.0188 10.0188 11.25 8.5 11.25H5.5C3.98122 11.25 2.75 10.0188 2.75 8.5V5.5C2.75 3.98122 3.98122 2.75 5.5 2.75H8.5ZM5.5 4.25C4.80964 4.25 4.25 4.80964 4.25 5.5V8.5C4.25 9.19036 4.80964 9.75 5.5 9.75H8.5C9.19036 9.75 9.75 9.19036 9.75 8.5V5.5C9.75 4.80964 9.19036 4.25 8.5 4.25H5.5Z" fill="#636C76"/>
<path d="M17 4C17.3312 4 17.5994 4.26842 17.5996 4.59961V6.40039H19.4004C19.7316 6.4006 20 6.66876 20 7C20 7.33124 19.7316 7.5994 19.4004 7.59961H17.5996V9.40039C17.5994 9.73158 17.3312 10 17 10C16.6688 10 16.4006 9.73158 16.4004 9.40039V7.59961H14.5996C14.2684 7.5994 14 7.33124 14 7C14 6.66876 14.2684 6.4006 14.5996 6.40039H16.4004V4.59961C16.4006 4.26842 16.6688 4 17 4Z" fill="#636C76"/>
</svg>

<svg xmlns="http://www.w3.org/2000/svg" width="24" height="24" viewBox="0 0 24 24"><path d="M8.5 12.75a2.75 2.75 0 0 1 2.75 2.75v3a2.75 2.75 0 0 1-2.75 2.75h-3a2.75 2.75 0 0 1-2.75-2.75v-3a2.75 2.75 0 0 1 2.75-2.75Zm-3 1.5c-.69 0-1.25.56-1.25 1.25v3c0 .69.56 1.25 1.25 1.25h3c.69 0 1.25-.56 1.25-1.25v-3c0-.69-.56-1.25-1.25-1.25Zm13-1.5a2.75 2.75 0 0 1 2.75 2.75v3a2.75 2.75 0 0 1-2.75 2.75h-3a2.75 2.75 0 0 1-2.75-2.75v-3a2.75 2.75 0 0 1 2.75-2.75Zm-3 1.5c-.69 0-1.25.56-1.25 1.25v3c0 .69.56 1.25 1.25 1.25h3c.69 0 1.25-.56 1.25-1.25v-3c0-.69-.56-1.25-1.25-1.25Zm-7-11.5a2.75 2.75 0 0 1 2.75 2.75v3a2.75 2.75 0 0 1-2.75 2.75h-3A2.75 2.75 0 0 1 2.75 8.5v-3A2.75 2.75 0 0 1 5.5 2.75Zm-3 1.5c-.69 0-1.25.56-1.25 1.25v3c0 .69.56 1.25 1.25 1.25h3c.69 0 1.25-.56 1.25-1.25v-3c0-.69-.56-1.25-1.25-1.25ZM17 4a.6.6 0 0 1 .6.6v1.8h1.8a.6.6 0 0 1 0 1.2h-1.8v1.8a.6.6 0 0 1-1.2 0V7.6h-1.8a.6.6 0 0 1 0-1.2h1.8V4.6A.6.6 0 0 1 17 4Z"/></svg>
